X:1
T:Title
%%score { ( 1 3 ) | ( 2 4 ) }
L:1/8
Q:1/4=100
M:6/8
K:Ab
V:1 treble nm="Grand Piano"
V:3 treble 
V:2 bass 
V:4 bass 
V:1
 [CE]>[CE][CE] [CE][A,C][CE] | [CA]3 [CA]3 | c>cc cBA | B6 | [CE]>[CE][CE] [CE][A,C][CE] | %5
w: J.~Howard~Entwisle * * * * *|||||
 [CA]3 [EA]2 [FB] | [Ec]>[Fd]c c2 B | [CA]6 | B>BB dcB | c3 c3 | e>dc cBA | B6 | %12
w: |||||||
 [CE]>[CE][CE] [CA]2 [CA] |[M:7/8] cBc [Fd]3 [_GB] |[M:3/4] A>A A B2 G | [CEA]6 | z2 z e3 | %17
w: |||||
 z2 z e3 | e>d cc BB |[M:5/8] c3 B2 |[M:1/8] E |[M:3/4] [CA]2 [CA] [Ec]2 [_GA] | %22
w: |||||
[M:7/8] [Fd]>[Fd][Fd] [Fd]3 [FB] |[M:3/4] A>A A B2 G | [CEA]6 |] %25
w: |||
V:2
 [A,,A,]>[A,,A,][A,,A,] [A,,A,][A,,E,][A,,A,] | [A,,E,]3 [A,,E,]3 | %2
 [A,E]>[A,E][A,E] [F,A,=D][F,A,D][F,A,D] | E3 z3 | [A,,A,]>[A,,A,][A,,A,] [A,,A,][A,,E,][A,,A,] | %5
 [A,,A,]3 [C,A,]2 [D,A,] | [E,A,]>[E,A,][E,A,E] [E,G,E]2 [E,G,D] | [A,,A,]6 | %8
 [E,G,E]>[E,G,E][E,G,E] [E,B,E][E,A,E][E,G,E] | [A,E]3 [A,E]3 | %10
 [A,CE]>[A,B,E][A,E] [F,A,=D]2 [F,A,D] | E3 z3 | [A,,A,]>[A,,A,][A,,A,] [A,,E,]2 [A,,E,] | %13
[M:7/8][K:treble] [A,E][A,_G][A,G][K:bass] [D,A,]3 [D,D] | %14
[M:3/4] [E,CE]>[E,CE] [E,CE] [E,E]2 [E,DE] | A,,6 | [E,E]2 [E,E] [E,B,]2 [E,E] | %17
 [A,EA]2 [A,EA] [A,CA]2 [A,C] | [A,CE]>[K:bass][A,B,E] [A,E][F,A,=D] [F,A,D][F,A,D] | %19
[M:5/8] [E,A,E]3 [E,G,E]2 |[M:1/8] [E,D] |[M:3/4] [A,,E,]2 [A,,E,] [A,,A,]2 [A,C] | %22
[M:7/8] [D,D]>[D,A,][D,A,] [D,A,]3 [D,D] |[M:3/4] [E,CE]>[E,CE] [E,CE] [E,DE]2 [E,DE] | A,,6 |] %25
V:3
 x6 | x6 | x6 | z3 D3 | x6 | x6 | x6 | x6 | x6 | x6 | x6 | z3 D3 | x6 |[M:7/8] x7 |[M:3/4] x6 | %15
 x6 | [GB]2 [GB] G2 G | c2 .c2 z A | x6 |[M:5/8] x5 |[M:1/8] x |[M:3/4] x6 |[M:7/8] x7 | %23
[M:3/4] x6 | x6 |] %25
V:4
 x6 | x6 | x6 | [E,G,]6 | x6 | x6 | x6 | x6 | x6 | x6 | x6 | [E,G,]6 | x6 | %13
[M:7/8][K:treble] x3[K:bass] x4 |[M:3/4] x6 | x6 | x6 | x6 | x3/2[K:bass] x9/2 |[M:5/8] x5 | %20
[M:1/8] x |[M:3/4] x6 |[M:7/8] x7 |[M:3/4] x6 | x6 |] %25

